src/pos-icons/pickaxe.svg

<svg height="24" viewBox="0 0 24 24" width="24" xmlns="http://www.w3.org/2000/svg"><path d="m14.79 10.62-11.29 11.28-1.4-1.4 11.28-11.29zm4.48-2.89.59-.59-.79-.79.64-.64-1.42-1.42-.64.64-.79-.79-.59.59c-1.74-1.42-3.7-2.56-5.8-3.36l-.83 1.79c1.75.92 3.36 2.03 4.86 3.34l-.5.5 3 3 .5-.5c1.31 1.5 2.42 3.11 3.34 4.86l1.79-.83c-.8-2.1-1.94-4.06-3.36-5.8z"/></svg>

<?xml version="1.0" encoding="UTF-8"?><!DOCTYPE svg PUBLIC "-//W3C//DTD SVG 1.1//EN" "http://www.w3.org/Graphics/SVG/1.1/DTD/svg11.dtd"><svg xmlns="http://www.w3.org/2000/svg" xmlns:xlink="http://www.w3.org/1999/xlink" version="1.1" id="mdi-pickaxe" width="24" height="24" viewBox="0 0 24 24"><path d="M14.79,10.62L3.5,21.9L2.1,20.5L13.38,9.21L14.79,10.62M19.27,7.73L19.86,7.14L19.07,6.35L19.71,5.71L18.29,4.29L17.65,4.93L16.86,4.14L16.27,4.73C14.53,3.31 12.57,2.17 10.47,1.37L9.64,3.16C11.39,4.08 13,5.19 14.5,6.5L14,7L17,10L17.5,9.5C18.81,11 19.92,12.61 20.84,14.36L22.63,13.53C21.83,11.43 20.69,9.47 19.27,7.73Z" /></svg>
